X:22
T:The Green Cockade
Z:Jack Campin  *  May 2000  *  http://www.campin.me.uk/
M:6/8
L:1/8
K:D
D2F A2d|f2d A2F |GFG  e2d|cBA GFE|D2F A2d|f2d A2F|GFG e2d|[1 cBc d3 :|\
                                                          [2 cBc dcd||
e2A F2A|f2d A2(f|g2)f e2d|cBA GFE|D2F A2d|f2d A2F|GFG e2d|[1 cBc dcd:|\
                                                          [2 cBc d3 |]

